icons/svg/eraser.svg

﻿<?xml version="1.0" encoding="utf-8"?>
<!DOCTYPE svg PUBLIC "-//W3C//DTD SVG 1.1//EN" "http://www.w3.org/Graphics/SVG/1.1/DTD/svg11.dtd">
<svg xmlns="http://www.w3.org/2000/svg" xmlns:xlink="http://www.w3.org/1999/xlink" version="1.1" baseProfile="full" width="24" height="24" viewBox="0 0 24.00 24.00" enable-background="new 0 0 24.00 24.00" xml:space="preserve">
	<path fill="#000000" fill-opacity="1" stroke-linejoin="round" d="M 16.2426,3.55762L 21.1924,8.50737C 21.9734,9.28841 21.9734,10.5547 21.1924,11.3358L 12,20.5282C 10.4379,22.0903 7.90525,22.0903 6.34316,20.5282L 2.80761,16.9926C 2.02657,16.2116 2.02657,14.9453 2.80761,14.1642L 13.4142,3.55761C 14.1953,2.77657 15.4616,2.77657 16.2426,3.55762 Z M 4.22183,15.5784L 7.75736,19.114C 8.53841,19.895 9.80474,19.895 10.5858,19.114L 14.1213,15.5784L 9.17157,10.6287L 4.22183,15.5784 Z "/>
</svg>

<svg xmlns="http://www.w3.org/2000/svg" version="1.1" baseProfile="full" width="24" height="24" viewBox="0 0 24.00 24.00" xml:space="preserve"><path fill="#000" fill-opacity="1" stroke-linejoin="round" d="M16.243 3.558l4.95 4.95c.78.78.78 2.047 0 2.828L12 20.528c-1.562 1.562-4.095 1.562-5.657 0l-3.535-3.535c-.78-.78-.78-2.048 0-2.83L13.414 3.56c.78-.78 2.048-.78 2.83 0zm-12.02 12.02l3.534 3.536c.78.78 2.048.78 2.83 0l3.534-3.536-4.948-4.95-4.95 4.95z"/></svg>
